X: 0
T: The Road to Errogie
C: Adam Sutherland
M: 4/4
L: 1/8
K: A
|:"A"EA (3AAA BABc | eA (3AAA Bcea | "D"f3a ecAc | "E"BABc BAFA | 
"A"EA (3AAA BABc | "(F#m)"eA (3AAA Bcea | "D"f3a ecAc | "E"BABc "A"A2 A2 :|
|:"A"a3e a2ba | "F#m"bc'2b a2e2 | "D"f2e a2 ef2 | "E"ea2e fece | 
[1 "A"a3e a2ba | "F#m"bc'2b a2e2 | "D"f2ea ecAc | "E"BABc "A"A2 A2:|
[2 "A"EA (3AAA BABc | eA (3AAA Bcea | "D"f2ea ecAc | "E"BABc "A"A2 A2 |] 